X: 1007
T: Disk's Fancy
N: Pub: J. Walsh, London, 1748
Z: 2012 John Chambers <jc:trillian.mit.edu>
M: 6/8
L: 1/8
K: F
V: 1
c |\
AFc AFc | AFc f2c | AFc AFc | GEG C2c |\
AFc AFc | AFc f2d | gfe dc=B | c3 C2 :|
|: c |\
cd_e edc | cBA G2A | Bcd dcB | BAG F2c |\
fca  fca | fca fed | cdB ABG | F3- F2 :|
V: 2 clef=bass middle=d
z |\
f3 F3 | f3 F3 | f3 F3  | c3  C3 |\
f3 F3 |f3 F2d | e3 f2g | c'3 c2 :|
|: z |\
^f3 d3 | g3 G2=f | =e3 c3   | F3 f3 |\
 F3 f3 | F3 f2b  | a2b c'2c | f3 F2 :|
%%begintext align
The 1st Man leads his Partner down, and brings up the 3d Wo. .|
the 3d Man brings up the 3d Wo. and takes his Partner down :|
cross over one Cu. and turn .|.
foot it all four, Right and Left at top :|:
%%endtext

%%sep 1 1 500
%%sep 1 1 500

